assets/fc/fc-feed-in.svg

<svg xmlns="http://www.w3.org/2000/svg" width="100%" height="100%" viewBox="0 0 48 48"><path fill="#2196F3" d="M38 24v12c0 1.1-.9 2-2 2H12c-1.1 0-2-.9-2-2V24c0-3.3-2.7-6-6-6v4c1.1 0 2 .9 2 2v12c0 3.3 2.7 6 6 6h24c3.3 0 6-2.7 6-6V24c0-1.1.9-2 2-2v-4c-3.3 0-6 2.7-6 6z"/><g fill="#3F51B5"><path d="M38.6 5.6L29 15.2V28h4V16.8l8.4-8.4zM6.6 8.4l8.4 8.4V28h4V15.2L9.4 5.6z"/><path d="M37 27l-6 6-6-6zM23 27l-6 6-6-6z"/></g></svg>

<svg xmlns="http://www.w3.org/2000/svg" width="100%" height="100%" viewBox="0 0 48 48"><path fill="#2196F3" d="M38,24v12c0,1.1-0.9,2-2,2H12c-1.1,0-2-0.9-2-2V24c0-3.3-2.7-6-6-6h0v4h0c1.1,0,2,0.9,2,2v12 c0,3.3,2.7,6,6,6h24c3.3,0,6-2.7,6-6V24c0-1.1,0.9-2,2-2h0v-4h0C40.7,18,38,20.7,38,24z"/><g fill="#3F51B5"><path d="M38.6 5.6L29 15.2 29 28 33 28 33 16.8 41.4 8.4zM6.6 8.4L15 16.8 15 28 19 28 19 15.2 9.4 5.6z"/><path d="M37 27L31 33 25 27zM23 27L17 33 11 27z"/></g></svg>
